accounts/organization_2.svg

<svg xmlns="http://www.w3.org/2000/svg" viewBox="0 0 16 16"><defs><style>.cls-1{fill:#231f20}</style></defs><title>organization_2</title><path class="cls-1" d="M14.563 11.54V9.85a2.717 2.717 0 0 0-2.713-2.714H9.058V4.749h3.309V.509h-8.32v4.24h3.511v2.388H4.767A2.717 2.717 0 0 0 2.053 9.85v1.69H.388v4.239h4.239V11.54H3.553V9.85a1.215 1.215 0 0 1 1.214-1.213h2.791v2.9H6.087v4.239h4.239V11.54H9.058v-2.9h2.792a1.215 1.215 0 0 1 1.213 1.21v1.69h-1.277v4.239h4.239V11.54zM5.3 1.759h5.82V3.5H5.3zm-1.92 12.77H1.638V12.79h1.739zm5.7 0H7.337V12.79h1.739zm5.7 0h-1.744V12.79h1.739z" id="Layer_1" data-name="Layer 1"/></svg>

<svg xmlns="http://www.w3.org/2000/svg" viewBox="0 0 16 16"><defs><style>.cls-1{fill:#231f20;}</style></defs><title>organization_2</title><g id="Layer_1" data-name="Layer 1"><path class="cls-1" d="M14.563,11.54V9.85a2.717,2.717,0,0,0-2.713-2.714H9.058V4.749h3.309V.509H4.047V4.749H7.558V7.137H4.767A2.717,2.717,0,0,0,2.053,9.85V11.54H.388v4.239H4.627V11.54H3.553V9.85A1.215,1.215,0,0,1,4.767,8.637H7.558v2.9H6.087v4.239h4.239V11.54H9.058v-2.9h2.792A1.215,1.215,0,0,1,13.063,9.85V11.54H11.786v4.239h4.239V11.54ZM5.3,1.759h5.82V3.5H5.3Zm-1.92,12.77H1.638V12.79H3.377Zm5.7,0H7.337V12.79H9.076Zm5.7,0H13.036V12.79h1.739Z"/></g></svg>
